!!!COM: Corelli, Arcangelo
!!!OTL: 
!!!ONM: Opus 4, No. 4
!!!OMV: 3
!!!CDT: 1653/2/17/-1713/1/8/
!!!OCY: Italia
**kern	**kern	**kern	**kern
*clefC	*clefC	*clefG	*clefG
*k[f#c#]	*k[f#c#]	*k[f#c#]	*k[f#c#]
*b:	*b:	*b:	*b:
*M4/4	*M4/4	*M4/4	*M4/4
=1	=1	=1	=1
8BB	8BB	4.r	8r
8B	8B	.	8b
8A#	8A#	.	4ff#
8F#	8F#	16ff#	.
.	.	16cc#	.
8BB	8BB	8dd	8r
8B	8B	8b	8b
8A#	8A#	8r	4ff#
8F#	8F#	16ff#	.
.	.	16cc#	.
=2	=2	=2	=2
8BB	8BB	8dd	8r
8d	8d	8b	8dd
8c#	8c#	8r	4aa
8A	8A	16aa	.
.	.	16ee	.
8D	8D	8ff#	8r
8d	8d	8dd	8dd
8c#	8c#	8r	4aa
8A	8A	16aa	.
.	.	16ee	.
=3	=3	=3	=3
8d	8d	8ff#	8r
8D	8D	8dd	8ff#
8r	8r	8r	8bb
8D#	8D#	8ff#	8aa
8E	8E	8b	8gg
8F#	8F#	8a#	4ff#
4G	4G	4b	.
.	.	.	8ee
=4	=4	=4	=4
8F#	8F#	8a#	4.ff#
8B	8B	8dd	.
8A#	8A#	8cc#	.
8F#	8F#	8f#	16ff#
.	.	.	16cc#
8BB	8BB	8r	8dd
8B	8B	8ff#	8b
8c#	8c#	8ee	8r
8A	8A	8a	16aa
.	.	.	16ee
=5	=5	=5	=5
8d	8d	8r	8ff#
8F#	8F#	8aa	8dd
8G	8G	8bb	8r
8A	8A	8cc#	8aa
8B	8B	8r	4dd
8F#	8F#	8aa	.
8G	8G	8bb	8r
8A	8A	8cc#	8aa
=6	=6	=6	=6
8B	8B	8r	4dd
8F#	8F#	4aa	.
8G	8G	.	8r
8GG	8GG	4gg	8b
8AA	8AA	.	8cc#
8D	8D	8ff#	4dd
8A	8A	4ee	.
8AA	8AA	.	8cc#
=7	=7	=7	=7
8D	8D	4.dd	8dd
8d	8d	.	8ff#
8B	8B	.	4.ff#
8A#	8A#	8ff#	.
8B	8B	4.ff#	.
8G#	8G#	.	8gg#
8c#	8c#	.	[4gg#
8B#	8B#	8gg#	.
=8	=8	=8	=8
8c#	8c#	4gg#	8gg#]
8B	8B	.	8cc#
8A	8A	8r	4.ff#
8F#	8F#	8cc#	.
4BB	4BB	4dd#	.
.	.	.	4gg#
4C#	4C#	4ee#	.
.	.	.	8aa
=9	=9	=9	=9
8D	8D	2.ff#	4bb
8d	8d	.	.
8c#	8c#	.	8aa
8B	8B	.	8gg#
8c#	8c#	.	4aa
8B	8B	.	.
8c#	8c#	8.ff#	4gg#
8C#	8C#	.	.
.	.	16ee#	.
=10	=10	=10	=10
8F#	8F#	4.ff#	4.ff#
8G#	8G#	.	.
8A	8A	.	.
8F#	8F#	8ff#	8aa
8B	8B	8dd#	8aa
8E	8E	4ee	8gg
8B	8B	.	4ff#
8BB	8BB	8dd#	.
=11	=11	=11	=11
8E	8E	4.ee	4.gg
8F#	8F#	.	.
8G	8G	.	.
8E	8E	8ee	[8gg
8A	8A	8cc#	8gg]
8D	8D	4dd	8ff#
8GG#	8GG#	.	4ee
8AA#	8AA#	[8cc#	.
=12	=12	=12	=12
8BB	8BB	8cc#]	4.dd
8B	8B	8b	.
8D	8D	8ff#	.
8E	8E	16ee	16cc#
.	.	16dd	16b
8F#	8F#	4cc#	8a#
8D	8D	.	8ff#
8E	8E	8r	8gg
8F#	8F#	8ff#	8a#
=13	=13	=13	=13
8G	8G	4b	8r
8D	8D	.	8ff#
8E	8E	8r	8gg
8F#	8F#	8ff#	8a#
8G	8G	4b	8r
8D	8D	.	8ff#
8E	8E	8r	8gg
8E	8E	8gg	[8ee
=14	=14	=14	=14
8F#	8F#	8a#	8ee]
8BB	8BB	4b	8dd
8F#	8F#	.	4cc#
8FF#	8FF#	8a#	.
4BB	4BB	8b	8b
.	.	8dd#	8ff#
8r	8r	8ee	8gg
8BB	8BB	8dd#	8ff#
=15	=15	=15	=15
8E	8E	8r	8r
8BB	8BB	8dd#	8ff#
8r	8r	8ee	8gg
8BB	8BB	8dd#	8ff#
8E	8E	8r	8r
8BB	8BB	8dd#	8ff#
8r	8r	8ee	8bb
8D#	8D#	8ff#	8aa
=16	=16	=16	=16
4E	4E	4b	4gg
4F#	4F#	4a#	2ff#
2G	2G	2b	.
.	.	.	4ee
=17	=17	=17	=17
1F#	1F#	1a#	1ff#
==	==	==	==
*-	*-	*-	*-
!!!RWG: This file only contains pitch and duration data.
!!!RWG: Transposing instruments are not transposed.
!!!RWG: Durations of rests and tied notes may be interpreted.
!!!RWG: Key is interpreted using the Humdrum key tool.
!!!SCA: 
!!!YOR: Chrysander Edition
!!!AGN: chamber
!!!AFT: stage1
!!!ENC: F. Bennion
!!!END: 1997/04/15
!!!AST: baroque
!!!YEC: Copyright 1994, Center for Computer Assisted Research in the Humanities
!!!YEM: Rights to all derivative electronic formats reserved.
!!!YEM: Refer to licensing agreement for further details.
!!!YEN: United States of America
!!!EED: W.B. Hewlett
!!!KEY: 2154770675
!!!EMD: Converted from MuseData to Humdrum Aug 9, 1999, by Bret Aarden using muse2kern.
!!!VTS: 3410939267
